X: 1
T: Cage, The
M: 4/4
L: 1/8
R: hornpipe
K: Gmaj
|:dc|BdcB AGBA|GDDE D2EF|GDAD BDcB|AGFG ADdc|
BdcB AGBA|GEAG FEDC|B,DGD EcAF|A2G2 G2:|
|:(3def|gGBd gbag|fagf e2 (3gfe|dDFA dfed|cdgB ADGA|
BdcB AGBA|GEAG FEDC|B,DGD EcAF|A2G2 G2:|
